X: 10812
T: FLOWERS OF EDINBRO'
R: reel, hornpipe
B: K\"ohler's Violin Repository, v.1, 1885 p.81 #2
F: http://www.archive.org/details/klersviolinrepos01edin
Z: 2012 John Chambers <jc:trillian.mit.edu>
M: C|
L: 1/8
K: G
u((3Bcd) |\
(DE)FD G2GA | (BA)Bd (cB)AG | (FG)EF (DE)FG | (AF)dF E2EG |\
(DE)FD G2GB | (cB)cd (ef)ge | (dc)BA (GF)GA | B2G2G2 :|
|: ((3def) |\
(gf)ga (gb)ag | (fe)fg (fa)gf | (ed)ef (gf)ed | B2e2 e2(gB) |\
(cB)AG (Bd)cB | (cB)cd (ef)ge | (dc)BA (GF)GA | B2G2G2 :|

%%sep 2 1 500

